X:1
T:Why dost thou shoot - Wilbye
T:#
%%score 1 2 3 { 4 | 5 }
L:1/8
Q:1/4=120
M:4/4
K:C
V:1 treble nm="Soprano I"
V:2 treble nm="Soprano II"
V:3 treble nm="Alto" snm="A"
V:4 treble-8 nm="Tenor I" snm="T"
V:5 treble-8 
V:1
"^Why dost thou shoot?""^John Wilbye\n (1574-1638)"!p! c8 | d4 d4 | e8 | z8 | z8 | %5
w: Why|dost thou|shoot,|||
[M:4/4] z2"^cresc." g2 g3 f | e2 c2 c2 d2- | dc c4 B2 | c8 | z8 | c8 | d4 d4 | e8 | z4!f! d4 | %14
w: Why dost thou|shoot, and I seek|* not to shield|me?||Why|dost thou|shoot,|and|
 c3 B A2 A2 | G4 G4- | G2!p! G2 G4 | z2 A2 c4 | z2 A2 d4 | z2 B2 d4 | z4!f! B2 c2- | c2 d2 e2 c2 | %22
w: I seek not to|shield me?|* I yield,|(sweet love)|I yield,|(sweet love)|Spare then|* my wound- ed|
 d8 | d4!p! d4 | c2 c2 B2 d2 | A4 z4 | z4 c4 | B2 B2 A3 B | c4 z4 | z4 g4 | f2 f2 e2 g2 | c4 c4 | %32
w: li-|ver, And|do not make my|heart,|and|do not make my|heart,|And|do not make my|heart thy|
 B6 c2 | d8 | e8 | z2!f! A2 c4 | z2 A2 d4 | z2 G2 A2 A2 | B2 G4 c2- | c2 B2 A4 | B4 B4 | c8 | A8 | %43
w: ar- row's|qi-|ver.|O hold!|O hold!|What needs this|shoot- ing, when|* I yield|me? What|needs|this|
 d8 | B8 | c8- | c4!p! e4 | d8 | e4 z2!f! c2 | c4 z2 c2 | c4 z2 d2 | d4 d4 | d2 d2 e2 e2 | d8 | %54
w: shoot-|ing,|when|* I|yield|me? O|hold! O|hold! What|needs this|shoot- ing, when I|yield|
 d2!f! g2 g2 g2 | (gfed) c4 | z2 a2 a2 a2 | (agfe) d2 z2 | z2 g2 g2 g2 | (gfed) c4 | A4 c4- | %61
w: me? What needs this|shoot\- * * * ing,|what needs this|shoot\- * * * ing,|what needs this|shoot\- * * * ing,|when I|
 c4 B4 | c8- | c16 |] %64
w: * yield|me?||
V:2
 z8 | z8 |!p! c8 | d4 d4 | e8 |[M:4/4] z4"^cresc." d4 | c3 B A2 A2 | G4 G4 | z4 c4 | d4 d4 | e8 | %11
w: ||Why|dost thou|shoot,|and|I seek not to|shield me?|Why|dost thou|shoot?|
 z8 | z8 | z2!f! g2 g3 g | e2 c2 c2 d2- | dc c4 B2 | c6!p! c2 | c4 z2 c2 | c4 z2 d2 | d4 z2 d2 | %20
w: ||Why dost thou|shoot, and I seek|* not to shield|me? I|yield, (sweet|love) I|yield, (sweet|
 d4!f! d2 e2- | e2 d2 c2 G2 | A8 | B8 | z8 | z4!p! g4 | f2 f2 e2 g2 | d3 e f2 d2 | (e3 f) g4 | z8 | %30
w: love) Spare then|* my wound- ed|li-|ver,||And|do not make my|heart thy ar- row's|qui\- * ver,||
 z4 g4 | f2 f2 e2 e2 | d4 d2 c2- | c2 (BA) B4 | c6!f! c2 | c4 z2 c2 | c4 z2 d2 | d4 d4 | %38
w: And|do not make my|heart thy ar\-|* row's * qui-|ver. O|hold! O|hold! What|needs this|
 d2 d2 e2 e2 | d8 | d2 g2 g2 g2 | (gfed) c4 | z2 a2 a2 a2 | (agfe) d2 z2 | z2 g2 g2 g2 | %45
w: shoot- ing, when I|yield|me? What needs this|shoot\- * * * ing,|what needs this|shoot\- * * * ing,|what needs this|
 (gfed) c4 | A4!p! c4- | c4 B4 | c8 | z2!f! A2 c4 | z2 A2 d4 | z2 G2 A2 A2 | B2 G4 c2- | c2 B2 A4 | %54
w: shoot\- * * * ing,|when I|* yield|me?|O hold!|O hold!|What needs this|shoot- ing, when|* I yield|
 B4 B4 | c8 | A8 | d8 | B8 | c8- | c4 e4 | d8 | e8- | e16 |] %64
w: me? What|needs|this|shoot-|ing,|when|* I|yield|me?||
V:3
 z8 | z2!p! G2 G3 F | E2 C2 E2 E2 | G2 (FE) D2 D2 | z4"^cresc." C4 |[M:4/4] D4 D4 | E2 E2 F2 F2 | %7
w: |Why dost thou|shoot, and I seek|not to * shield me?|Why|dost thou|shoot, and I seek|
 E2 E2 D4 | E4 z4 | z2 G2 G3 F | E2 C2 E2 E2 | G2 (FE) D2 D2 | z4!f! C4 | D4 D4 | E2 E2 F2 F2 | %15
w: not to shield|me?|Why dost thou|shoot, and I seek|not to * shield me?|Why|dost thou|shoot, and I seek|
 E2 E2 D4 | E8 | z2!p! F2 G4 | z2 F2 A4 | z2 G2 A2 A2 | G4!f! G2 G2- | G2 G2 G4- | G2 (^FE) F4 | %23
w: not to shield|me?|I yield,|(sweet love)|I yield, (sweet|love) Spare then|* my wound\-|* ed * li-|
 G6!p! G2 | E2 ^F2 G2 D2 | F2 F2 G2 G2 | A2 F2 z4 | G4 F2 F2 | E2 G2 G2 G2 | A2 A2 G2 G2 | %30
w: ver, And|do not make my|heart thy ar- row's|qui- ver,|and do not|make my heart thy|ar- row's qui- ver,|
 z2 A2 G2 E2 | F2 A2 G4- | G2 G2 F2 E2 | D8 | C4 z2!f! E2 | F4 z2 G2 | F4 A4 | G4 D4 | D4 G4 | %39
w: and do not|make my heart|* thy ar- row's|qui-|ver. O|hold! O|hold! What|needs this|shoot- ing,|
 ^F2 G4 F2 | G8 | z4 z2 c2 | c2 c2 (cBAG) | F2 D2 D2 d2 | (dcBA) G4 | z4 G4 | A4!p! G4- | G8 | %48
w: when I yield|me?|What|needs this shoot\- * * *|ing, what needs this|shoot\- * * * ing,|when|I yield||
 G4 z2!f! E2 | F4 z2 G2 | F4 A4 | G4 D4 | D4 G4 | ^F2 G4 F2 | G8 | z4 z2!f! c2 | c2 c2 (cBAG) | %57
w: me? O|hold! O|hold! What|needs this|shoot- ing,|when I yield|me?|What|needs this shoot\- * * *|
 F2 D2 D2 d2 | (dcBA) G4 | z4 G4 | A4 G4- | G8 | G8- | G16 |] %64
w: ing, what needs this|shoot\- * * * ing,|when|I yield||me?||
V:4
 z4!p! c4- | c2 c2 B4 | c4 A4 | G4 G4 | G4 (e3 f) |[M:4/4][K:treble-8] g8 | g4 z4 | %7
w: Why|* dost thou|shoot, and|I seek|not to *|shield|me?|
 z4 z2"^cresc." g2 | g3 f e2 e2 | d4 d4 | z4 c4- | c2 c2 B4 | c4!f! A4 | G8 | G4 A2 F2 | G2 G2 z4 | %16
w: and|I seek not to|shield me?|Why|* dost thou|shoot, and|I|seek not to|shield me?|
 z2!p! c2 c4 | z2 c2 c4 | z4 d4 | d4 z2 A2 | B4!f! d2 c2- | c2 G2 c2 c2 | A4 A4 | z4 z2!p! B2 | %24
w: I yield,|(sweet love)|I|yield, (sweet|love) Spare then|* my wound- ed|li- ver,|And|
 A2 A2 G2 G2 | G2 G2 e2 d2 | d4 e4 | z4 d4 | c2 c2 B2 d2 | A3 B c2 B2 | A2 A2 z2 c2 | c2 c2 e2 c2 | %32
w: do not make my|heart thy ar- row's|qui- ver,|and|do not make my|heart thy ar- row's|qui- ver, and|do not make my|
 d6 e2 | g2 g2 g4 | g6!f! G2 | A4 z2 G2 | A4 z2 A2 | B2 B2 A4 | G4 G2 G2 | d4 A4 | z4 d4 | e8 | %42
w: heart thy|ar- row's qui-|ver. O|hold! O|hold! What|needs this shoot-|ing, when I|yield me?|What|needs|
 f8 | f8 | g6 d2 | e2 e2 e2 g2 | f4!p! (e4 | g4) G4 | G4!f! c4 | c8 | z4 d4 | d8 | z8 | %53
w: this|shoot-|ing, what|needs this shoot- ing|when I|* yield|me? O|hold!|O|hold!||
 z2!f! d2 d2 d2 | (dcBA) G2 g2 | g2 g2 (gfed) | c4 z2 a2 | a2 a2 (agfe) | d4 z2 g2 | g2 g2 (gfed) | %60
w: What needs this|shoot\- * * * ing, what|needs this shoot\- * * *|ing, what|needs this shoot\- * * *|ing, what|needs this shoot\- * * *|
 c4 c4 | d4 d4 | c8- | c16 |] %64
w: ing, when|I yield|me?||
V:5
 z8 | z8 | z4!p! c4- | c2 c2 B4 | c4"^cresc." A4 |[M:4/4][K:treble-8] G8 | G4 A2 F2 | G2 G2 z4 | %8
w: ||Why|* dost thou|shoot, and|I|seek not to|shield me?|
 z4"^cresc." c4- | c2 c2 B4 | c4 A4 | G4 G4 | G4 (e3 f) | g8 | g4 z4 | z4 z2!p! G2 | G4 z2 c2 | %17
w: Why|* dost thou|shoot, and|I seek|not to *|shield|me?|I|yield, (sweet|
 A4 z2 G2 | A4 z2 A2 | B2 d2 d4 | z4!f! G2 G2- | G2 G2 G2 G2 | d8 | d8 | z4 z2!p! B2 | %25
w: love) I|yield, I|yield, (sweet love)|Spare then|* my wound- ed|li-|ver,|And|
 d2 c2 c2 B2 | A3 B c2 G2 | B2 G2 z4 | z4 d4 | f2 c2 e2 d2 | d4 G4 | A4 c4 | G8- | G8 | c4!f! c4 | %35
w: do not make my|heart thy ar- row's|qui- ver,|and|do not make my|heart thy|ar- row's|qui\-||ver. O|
 c8 | z4 d4 | d8 | z8 | z2 d2 d2 d2 | (dcBA) G2 g2 | g2 g2 (gfed) | c4 z2 a2 | a2 a2 (agfe) | %44
w: hold!|O|hold!||What needs this|shoot\- * * * ing, what|needs this shoot\- * * *|ing, what|needs this shoot\- * * *|
 d4 z2 g2 | g2 g2 (gfed) | c4!p! c4 | d4 d4 | c4 z2!f!!f! G2 | A4 z2 G2 | A4 z2 A2 | B2 B2 A4 | %52
w: ing, what|needs this shoot\- * * *|ing, when|I yield|me? O|hold! O|hold! What|needs this shoot-|
 G4 G2 G2 | d4 A4 | z4 d4 | e8 | f8 | f8 | g6 d2 | e2 e2 e2 g2 | f4 (e4 | g4) G4 | G8- | G16 |] %64
w: ing, when I|yield me?|What|needs|this|shoot-|ing, what|needs this shoot- ing|when I|* yield|me?||

